X: 1
T: JENNY DANGED THE WEAVER -- REEL
B: Ryan's Mammoth Collection of Fiddle Tunes
R: reel
M: C|
L: 1/8
Z: Contributed 20010525023951 by John Chambers jc:trillian.mit.edu
K: D
uA"^segno"[|]\
|:d2fd efge | d2fd g2fe | d2fd efge | aBBd g2fe \
| d2fd efge | d2fd g2fe | d2fd efge | aBBd g2fe :|
|:gBBc B2BA | GABd g2fg | aAAA A2((3BAG) | ABde f2ef \
| gBBB B2BA | GABd g2fg | aAAA ABAG | ABde f2ge "^segno"[|]:|
